X:53
T:Queen of The Rushes, The
R:jig
H:Also played in G. 2nd part V2 sometimes played with =c all The way.
N:Related to The Humours of Ennistymon, #142
D:Planxty
Z:Ptit Louis V1
Z:id:hn-jig-6 V2
M:6/8
K:Dmix
AG|:F2D DAF|G2E EAG|F2D DAF|GED DAG|F2D DAF|G2E EFG|~A3 GEA|1 ~D3
DAG:|2 ~D3
D2B||
|:c2A Bcd|ecA AGE|d2e fed|ecA A2B|c2A Bcd|ecA AGE|~F3 GEA|1 ~D3 D2B:|2
~D3
DFG||
~A3 dAF|~A3 dAF|~G3 ~E3|cBc EFG|~A3 dAF|~A3 dAG|~F3 GEA|1 ~D3 DFG:|2
~D3 D||
